public/fonts/icons/reply-all-2.svg

<?xml version="1.0" encoding="utf-8"?>

<!DOCTYPE svg PUBLIC "-//W3C//DTD SVG 1.1//EN" "http://www.w3.org/Graphics/SVG/1.1/DTD/svg11.dtd">
<svg version="1.1" xmlns="http://www.w3.org/2000/svg" xmlns:xlink="http://www.w3.org/1999/xlink" width="32" height="32" viewBox="0 0 32 32">
<g>
</g>
	<path d="M18 7.762v-7.762l-12 12 12 12v-7.932c13.961-0.328 12.392 9.493 8.838 15.932 8.772-9.482 5.162-24.238-8.838-24.238zM2.828 12l9.172-9.172v-2.828l-12 12 12 12v-2.828l-9.172-9.172z" fill="#000000"></path>
</svg>

<svg xmlns="http://www.w3.org/2000/svg" width="32" height="32" viewBox="0 0 32 32"><title>Reply All</title><path d="M18 7.762V0L6 12l12 12v-7.932C31.96 15.74 30.392 25.56 26.838 32 35.61 22.518 32 7.762 18 7.762zM2.828 12L12 2.828V0L0 12l12 12v-2.828L2.828 12z"/></svg>
